X: 86
T: No_179_Song_of_the_Game_of_Silence.krn
%%abc-version 2.0
%%abcx-abcm2ps-target-version 5.9.1 (29 Sep 2008)
%%abc-creator hum2abc beta
%%abcx-conversion-date 2020/08/10 18:54:57
%%humdrum-veritas 3145532545
%%humdrum-veritas-data 4111597273
%%linebreak <none>
%%barnumbers 0
L: 1/4
M: 2/4
K: Bb clef=bass
D// [I:setbarnb 1]| 
FF3//D// | 
FF | 
DF | 
B,2 | 
DB,3//B,// | 
C3/B,/ | 
B,7//C// | 
B,7//F,// | 
B,2 | 
B,B, | 
B,B, ||  
[M:3/4]B,2B,/F,/ ||  
[M:2/4]B,2 | 
B,2 | 
FF/F/ | 
FF/D/ | 
F2 | 
F2 | 
B,B, | 
B,B,/F,/ | 
B,2 | 
B,2 | 
B,/B,/B, | 
B,B,/B,/ | 
B,B,/F,/ | 
B,2 | 
B,2 | 
F/F/F | 
F2 | 
F/D/D | 
D2 | 
D/B,/B, | 
B,2 | 
DB,3//B,// ||  
[M:3/4]CCB, ||  
[M:2/4]G,2 | 
F,2 | 
B,F,3//F,// ||  
[M:3/4]G,G,F, ||  
[M:2/4]D,2 | 
B,,2 | 
DD | 
CB, | 
C2 | 
C2 | 
DD/D/ | 
DD | 
DD/D/ | 
CB, | 
C2 | 
C2 | 
C/C/C | 
C/F,/F, | 
C/C/C | 
C/F,/F, | 
FF//C3// | 
CC3//C// | 
CF, | 
FF//C3// | 
CC3//C// | 
CF, | 
CC | 
E/C/B, | 
CC | 
E/C/B, | 
!wedge!Fz |]  


